assets/sonr-icons/at-sign.svg

<svg xmlns="http://www.w3.org/2000/svg" width="24" height="24" fill="none" viewBox="0 0 24 24"><path fill="#000" d="M4.00001 12C4.00001 7.58198 7.58201 3.99998 12 3.99998C16.418 3.99998 20 7.58198 20 12C20 12.244 19.995 13.101 19.739 13.871C19.612 14.251 19.446 14.539 19.254 14.722C19.086 14.882 18.863 15 18.499 15C18.095 15 17.901 14.889 17.769 14.754C17.602 14.584 17.425 14.259 17.287 13.654C17.006 12.416 17 10.553 17 8.00098C17 7.44898 16.552 7.00098 16 7.00098C15.448 7.00098 15 7.44898 15 8.00098C14.165 7.37298 13.126 7.00098 12 7.00098C9.23901 7.00098 7.00001 9.23998 7.00001 12.001C7.00001 14.762 9.23901 17.001 12 17.001C13.494 17.001 14.834 16.346 15.751 15.307C15.906 15.618 16.098 15.905 16.341 16.153C16.912 16.737 17.655 17.001 18.501 17.001C19.387 17.001 20.102 16.681 20.637 16.169C21.148 15.681 21.451 15.062 21.637 14.505C22.001 13.413 22.001 12.283 22.001 12.01V12.001C22.001 6.47798 17.524 2.00098 12.001 2.00098C6.47801 2.00098 2.00101 6.47798 2.00101 12.001C2.00101 17.524 6.47901 22.001 12.001 22.001C13.596 22.001 15.106 21.627 16.446 20.961C16.94 20.715 17.142 20.115 16.897 19.621C16.652 19.127 16.051 18.925 15.557 19.17C14.488 19.702 13.281 20.001 12.002 20.001C7.58401 20.001 4.00201 16.419 4.00201 12.001L4.00001 12ZM15 12C15 13.657 13.657 15 12 15C10.343 15 9.00001 13.657 9.00001 12C9.00001 10.343 10.343 8.99998 12 8.99998C13.657 8.99998 15 10.343 15 12Z"/></svg>

<svg xmlns="http://www.w3.org/2000/svg" width="24" height="24" fill="none"><path fill="currentColor" d="M4 12a8 8 0 0 1 16 0c0 .244-.005 1.101-.261 1.871-.127.38-.293.668-.485.851-.168.16-.391.278-.755.278-.404 0-.598-.111-.73-.246-.167-.17-.344-.495-.482-1.1-.281-1.238-.287-3.101-.287-5.653a1 1 0 0 0-2 0 5 5 0 1 0 .751 7.306c.155.311.347.598.59.846.571.584 1.314.848 2.16.848.886 0 1.601-.32 2.136-.832.511-.488.814-1.107 1-1.664.364-1.092.364-2.222.364-2.495v-.009c0-5.523-4.477-10-10-10s-10 4.477-10 10 4.478 10 10 10a9.96 9.96 0 0 0 4.445-1.04 1.001 1.001 0 0 0-.889-1.791 7.96 7.96 0 0 1-3.555.831 8 8 0 0 1-8-8zm11 0a3 3 0 1 1-6 0 3 3 0 0 1 6 0"/></svg>
